docs/.gitbook/assets/icon-monitor-16@dark.svg

<svg width="32" height="32" viewBox="0 0 16 16" fill="none" xmlns="http://www.w3.org/2000/svg">
<rect x="0" y="0" width="16" height="16" fill="#181c1f"/>
<path fill-rule="evenodd" clip-rule="evenodd" d="M1 3.75C1 2.23122 2.23122 1 3.75 1H12.25C13.7688 1 15 2.23122 15 3.75V8.75C15 10.2688 13.7688 11.5 12.25 11.5H10.25V13.5388C10.5413 13.6417 10.75 13.9195 10.75 14.2461C10.75 14.6603 10.4142 14.9961 10 14.9961H6C5.58579 14.9961 5.25 14.6603 5.25 14.2461C5.25 13.9195 5.4587 13.6417 5.75 13.5388V11.5H3.75C2.23122 11.5 1 10.2688 1 8.75V3.75ZM6.5 10H9.5H12.25C12.9404 10 13.5 9.44036 13.5 8.75V3.75C13.5 3.05964 12.9404 2.5 12.25 2.5H3.75C3.05964 2.5 2.5 3.05964 2.5 3.75V8.75C2.5 9.44036 3.05964 10 3.75 10H6.5ZM7.25 11.5V13.496H8.75V11.5H7.25Z" fill="#fff"/>
</svg>

<svg xmlns="http://www.w3.org/2000/svg" width="32" height="32" fill="none" viewBox="0 0 16 16"><path fill="#181c1f" d="M0 0h16v16H0z"/><path fill="#fff" fill-rule="evenodd" d="M1 3.75A2.75 2.75 0 0 1 3.75 1h8.5A2.75 2.75 0 0 1 15 3.75v5a2.75 2.75 0 0 1-2.75 2.75h-2v2.039a.75.75 0 0 1-.25 1.457H6a.75.75 0 0 1-.25-1.457V11.5h-2A2.75 2.75 0 0 1 1 8.75zM6.5 10h5.75c.69 0 1.25-.56 1.25-1.25v-5c0-.69-.56-1.25-1.25-1.25h-8.5c-.69 0-1.25.56-1.25 1.25v5c0 .69.56 1.25 1.25 1.25zm.75 1.5v1.996h1.5V11.5z" clip-rule="evenodd"/></svg>
